alura/assets/api/cursos/gestao-negocios-visao-geral-processos-negocios.svg

<svg width="50" height="50" viewBox="0 0 50 50" fill="none" xmlns="http://www.w3.org/2000/svg">
<g clip-path="url(#clip0_1411_2)">
<path d="M45.2 4.3999H6.09995C4.79995 4.3999 1.89995 7.3999 1.89995 8.7999L1.69995 24.8999L1.19995 34.5999L2.39995 45.7999L17.1 46.9999L47.7 36.0999V6.7999C47.6 5.4999 46.6 4.3999 45.2 4.3999Z" fill="#FCC34F"/>
<path d="M32.9001 46.0999H5.30005C3.40005 46.0999 1.80005 44.6999 1.80005 42.9999V8.4999C1.80005 6.7999 3.40005 5.3999 5.30005 5.3999H45.3C47.2 5.3999 48.8 6.7999 48.8 8.4999V37.2999" stroke="#444444" stroke-width="2.5" stroke-miterlimit="10" stroke-linecap="round" stroke-linejoin="round"/>
<path d="M21.5001 14.1C21.9001 13.6 22.4001 13.4 23.0001 13.4H27.0001C27.7001 13.4 28.1001 13.6 28.5001 14.1C28.7001 14.4 28.8001 14.8 28.9001 15.2C29.0001 15.6 29.3001 15.9 29.7001 15.9C30.2001 15.9 30.6001 15.4 30.5001 14.9C30.2001 13.2 29.5001 11.7 26.9001 11.7H22.9001C20.3001 11.7 19.6001 13.2 19.3001 14.9C19.2001 15.4 19.6001 15.9 20.1001 15.9C20.5001 15.9 20.9001 15.6 20.9001 15.2C21.2001 14.7 21.2001 14.3 21.5001 14.1Z" stroke="#444444" stroke-miterlimit="10"/>
<path d="M37.9 39.6H12.1C10.1 39.6 8.5 38 8.5 36V19.6C8.5 17.6 10.1 16 12.1 16H37.9C39.9 16 41.5 17.6 41.5 19.6V36C41.5 38 39.8 39.6 37.9 39.6Z" stroke="#444444" stroke-miterlimit="10" stroke-linecap="round" stroke-linejoin="round"/>
<path d="M8.5 21.3L24.8 25.8L41.2 21.5" stroke="#444444" stroke-miterlimit="10" stroke-linecap="round" stroke-linejoin="round"/>
<path d="M25.8 33.4H24.3C24 33.4 23.8 33.6 23.8 33.9V39.5999H26.4V33.9C26.3 33.6 26.1 33.4 25.8 33.4ZM30.1 32H28.6C28.3 32 28.1 32.2 28.1 32.5V39.5999H30.7001V32.5C30.6001 32.2 30.4 32 30.1 32ZM34.3 29.7H32.8C32.5 29.7 32.3 29.9 32.3 30.2V39.5999H34.9001V30.2C34.9001 30 34.6 29.7 34.3 29.7Z" stroke="#444444" stroke-width="0.5" stroke-miterlimit="10"/>
<path d="M38.9999 39.4999V28.2999C38.9999 28.0999 38.7999 27.8999 38.5999 27.8999H36.7999C36.5999 27.8999 36.3999 28.0999 36.3999 28.2999V39.1999" stroke="#444444" stroke-width="0.5" stroke-miterlimit="10" stroke-linecap="round" stroke-linejoin="round"/>
<path d="M19.8999 32H21.3999C21.6999 32 21.8999 32.2 21.8999 32.5V39.6H19.2999V32.5C19.2999 32.2 19.5999 32 19.8999 32ZM15.5999 29.7001H17.0999C17.3999 29.7001 17.5999 29.9001 17.5999 30.2001V39.6H14.9999V30.2001C15.0999 30.0001 15.2999 29.7001 15.5999 29.7001ZM11.4999 27.8H12.9999C13.2999 27.8 13.4999 28 13.4999 28.3V39.6H10.9999C10.8999 39.6 10.8999 39.5 10.8999 39.5V28.4C10.8999 28.1 11.1999 27.8 11.4999 27.8Z" stroke="#444444" stroke-width="0.5" stroke-miterlimit="10"/>
</g>
<defs>
<clipPath id="clip0_1411_2">
<rect width="50" height="50" fill="white"/>
</clipPath>
</defs>
</svg>

<svg xmlns="http://www.w3.org/2000/svg" fill="none" viewBox="0 0 50 50"><g clip-path="url(#clip0_1411_2)"><path fill="#FCC34F" d="M45.2 4.4H6.1c-1.3 0-4.2 3-4.2 4.4l-.2 16.1-.5 9.7 1.2 11.2L17.1 47l30.6-10.9V6.8c-.1-1.3-1.1-2.4-2.5-2.4z"/><path stroke="#444" stroke-linecap="round" stroke-linejoin="round" stroke-miterlimit="10" stroke-width="2.5" d="M32.9 46.1H5.3c-1.9 0-3.5-1.4-3.5-3.1V8.5c0-1.7 1.6-3.1 3.5-3.1h40c1.9 0 3.5 1.4 3.5 3.1v28.8"/><path stroke="#444" stroke-miterlimit="10" d="M21.5 14.1c.4-.5.9-.7 1.5-.7h4c.7 0 1.1.2 1.5.7.2.3.3.7.4 1.1.1.4.4.7.8.7.5 0 .9-.5.8-1-.3-1.7-1-3.2-3.6-3.2h-4c-2.6 0-3.3 1.5-3.6 3.2-.1.5.3 1 .8 1 .4 0 .8-.3.8-.7.3-.5.3-.9.6-1.1z"/><path stroke="#444" stroke-linecap="round" stroke-linejoin="round" stroke-miterlimit="10" d="M37.9 39.6H12.1c-2 0-3.6-1.6-3.6-3.6V19.6c0-2 1.6-3.6 3.6-3.6h25.8c2 0 3.6 1.6 3.6 3.6V36c0 2-1.7 3.6-3.6 3.6z"/><path stroke="#444" stroke-linecap="round" stroke-linejoin="round" stroke-miterlimit="10" d="M8.5 21.3l16.3 4.5 16.4-4.3"/><path stroke="#444" stroke-miterlimit="10" stroke-width=".5" d="M25.8 33.4h-1.5c-.3 0-.5.2-.5.5v5.7h2.6v-5.7c-.1-.3-.3-.5-.6-.5zm4.3-1.4h-1.5c-.3 0-.5.2-.5.5v7.1h2.6v-7.1c-.1-.3-.3-.5-.6-.5zm4.2-2.3h-1.5c-.3 0-.5.2-.5.5v9.4h2.6v-9.4c0-.2-.3-.5-.6-.5z"/><path stroke="#444" stroke-linecap="round" stroke-linejoin="round" stroke-miterlimit="10" stroke-width=".5" d="M39 39.5V28.3c0-.2-.2-.4-.4-.4h-1.8c-.2 0-.4.2-.4.4v10.9"/><path stroke="#444" stroke-miterlimit="10" stroke-width=".5" d="M19.9 32h1.5c.3 0 .5.2.5.5v7.1h-2.6v-7.1c0-.3.3-.5.6-.5zm-4.3-2.3h1.5c.3 0 .5.2.5.5v9.4H15v-9.4c.1-.2.3-.5.6-.5zm-4.1-1.9H13c.3 0 .5.2.5.5v11.3H11c-.1 0-.1-.1-.1-.1V28.4c0-.3.3-.6.6-.6z"/></g><defs><clipPath id="clip0_1411_2"><path fill="#fff" d="M0 0h50v50H0z"/></clipPath></defs></svg>
